X:1
T:Title
%%score { ( 1 3 ) | 2 }
L:1/8
Q:1/4=84
M:4/4
K:D
V:1 treble nm="Grand Piano"
V:3 treble 
V:2 bass 
V:1
 FDEF GEFG | [FA]2 [GB]2 [FA]4 | [EB][CE][CE][DF] [A,EG]4 | [A,FA]DDE F4 | FDEF GEFG | %5
w: C.~Austin~Miles * * * * * * *|||||
[M:3/4] [FA]2 [GB]2 [FA]2 |[M:1/4] [=FB]2 |[M:4/4] cA^GF E2 B2 |[M:3/4] [CA]6 |[M:1/4] [CA][CF] | %10
w: |||||
[M:7/8] D>DD [CE][DF] [FA]2 |[M:1/8] [FA] |[M:4/4] B>B dd [Fd] [FA]2 [FA] | [GB]4 z4 | %14
w: ||||
[M:3/4] Ec [^Gd][DGB] [CA]2 |[M:1/4] [A,CA][A,CF] | %16
w: ||
[M:7/8][K:bass] [F,D]>[F,D][F,D][K:treble] [A,CE][A,DF] [FA]2 |[M:1/8] [FA] | %18
w: ||
[M:4/4] B>B dd [Fd] [FA]2 [FA] | [Fd]FGA c B2 B | A2 [Ge]2 z4 |] %21
w: |||
V:2
 [D,A,D][D,F,][D,G,D][D,A,D] [E,A,C][G,A,C][F,A,D][E,A,E] | [D,D]2 [D,D]2 [D,D]4 | %2
 [A,C][A,,A,][A,,A,][A,,A,] A,,B,, C,2 | D,[D,F,][D,F,][D,G,D] [D,A,D]4 | %4
 [D,A,D][D,F,][D,G,D][D,A,D] [E,A,D][G,A,C][F,A,D][E,A,E] |[M:3/4] [D,D]2 [D,D]2 [D,D]2 | %6
[M:1/4] [D,A,]2 |[M:4/4] [E,A,E][E,CE][E,B,D][E,A,D] [E,^G,D]2 [E,G,D]2 |[M:3/4] [A,,A,]6 | %9
[M:1/4] [A,,A,][A,,A,] |[M:7/8] [D,F,]>[D,F,][D,F,] [A,,A,][D,A,] [D,D]2 |[M:1/8] [D,D] | %12
[M:4/4][K:treble] [G,DG]>[G,DG] [G,B,G][G,B,G][K:bass] [D,A,] [D,D]2 [D,D] | %13
 [G,D]G,G,[G,B,G] [D,A,][D,D][D,A,D][F,A,] |[M:3/4] [E,A,C][E,A,E] [E,B,]E, A,2 |[M:1/4] A,,A,, | %16
[M:7/8] D,>D,D, A,,D, [D,D]2 |[M:1/8] [D,D] | %18
[M:4/4][K:treble] [G,DG]>[G,DG] [G,B,G][G,B,G][K:bass] [D,A,] [D,D]2 [D,D] | %19
 [D,D][D,A,D][E,A,C][F,A,D][K:treble] [G,B,D] [G,B,D]2 [^G,D=F] | %20
 .[A,DF]2[K:bass] .[A,,B,]2 [D,A,D]4 |] %21
V:3
 x8 | x8 | x8 | x8 | x8 |[M:3/4] x6 |[M:1/4] x2 |[M:4/4] x8 |[M:3/4] x6 |[M:1/4] x2 |[M:7/8] x7 | %11
[M:1/8] x |[M:4/4] x8 | z DDd [Fd][FA]FD |[M:3/4] x6 |[M:1/4] x2 |[M:7/8][K:bass] x3[K:treble] x4 | %17
[M:1/8] x |[M:4/4] x8 | x8 | z C z C [Fd]4 |] %21

